X:1
T:Great High Priest, 77.77
T:Great High Priest, 77.77
T:Christian Gregor’s Choralbuch, 1784
T:Public Domain Courtesy of the Cyber Hymnal™
C:Christian Gregor’s Choralbuch, 1784
Z:Public Domain
Z:Courtesy of the Cyber Hymnal™
%%score ( 1 2 ) ( 3 4 )
L:1/8
Q:1/4=108
M:4/4
K:C
V:1 treble 
V:2 treble 
V:3 bass 
V:4 bass 
V:1
 [Ec]2 [DB]2 [Cc]2 [CA]2 | [EG]2 [DF]2 [CE]4 | [Ec]2 [^FA]2 [Gd]2 [Gc]2 | [GB]2 [^FA]2 G4 | %4
 [Cc]2 [EG]2 [FA]2 [FA]2 | [Dd]2 [^Fc]2 [GB]4 | [Gc]2 [EG]2 [FA]2 [Fd]2 | [Ec]2 [DB]2 [Ec]4 |] %8
V:2
 x8 | x8 | x8 | x4 G4 | x8 | x8 | x8 | x8 |] %8
V:3
 [C,G,]2 [D,F,]2 [E,G,]2 [F,A,]2 | [G,C]2 [G,,B,]2 [C,C]4 | [A,,C]2 [D,D]2 [B,,D]2 [C,E]2 | %3
 [D,D]2 [D,C]2 [G,,B,]4 | [E,G,]2 [C,C]2 [F,C]2 [F,C]2 | [^F,A,]2 [D,D]2 [G,D]4 | %6
 [E,C]2 [C,C]2 [F,C]2 [F,A,]2 | G,2 [G,,G,]2 [C,G,]4 |] %8
V:4
 x8 | x8 | x8 | x8 | x8 | x8 | x8 | G,2 x6 |] %8

